; generated by Slic3r Prusa Edition 1.41.1+win64 on 2018-11-15 at 17:07:25

; 

; external perimeters extrusion width = 0.42mm
; perimeters extrusion width = 0.42mm
; infill extrusion width = 0.42mm
; solid infill extrusion width = 0.42mm
; top infill extrusion width = 0.42mm
; first layer extrusion width = 0.42mm

M73 P0 R16
M73 Q0 S16
M201 X4000 Y4000 Z400 E1000 ; sets maximum accelerations, mm/sec^2
M203 X500 Y500 Z12 E120 ; sets maximum feedrates, mm/sec
M204 P1500 R1200 T1500 ; sets acceleration (P, T) and retract acceleration (R), mm/sec^2
M205 X6.00 Y6.00 Z0.40 E1.00 ; sets the jerk limits, mm/sec
M205 S0 T0 ; sets the minimum extruding and travel feed rate, mm/sec
M107
M83  ; extruder relative mode
M140 S65 ; set bed temp
M109 S160 ; Set extruder temp before bed level
M190 S65 ; wait for bed temp

G28 W ; home all without mesh bed level
G80 ; mesh bed leveling

M109 S215 ; wait for extruder temp

G1 Y-3.0 F1000.0 ; go outside print area
G92 E0.0
G1 E8 ; Purge Bubble
M73 Q0 S16
M73 P0 R16
G1 X60.0 E9.0  F1000.0 ; intro line
G1 X100.0 E12.5  F1000.0 ; intro line
G92 E0.0
M900 K30; Filament gcode
G21 ; set units to millimeters
G90 ; use absolute coordinates
M83 ; use relative distances for extrusion
;BEFORE_LAYER_CHANGE





G1 E-0.80000 F1800.00000
G1 Z0.400 F7200.000
;AFTER_LAYER_CHANGE

G1 X4.743 Y2.947
G1 Z0.200
G1 E0.80000 F1800.00000
M204 S1000
G1 F1200
G1 X5.494 Y2.811 E0.02274
G1 X244.504 Y2.811 E7.11928
G1 X245.334 Y2.976 E0.02521
G1 X246.042 Y3.447 E0.02531
G1 X246.517 Y4.151 E0.02531
G1 X246.688 Y4.983 E0.02531
G1 X246.689 Y205.007 E5.95804
G1 X246.636 Y205.475 E0.01402
G1 X246.484 Y205.924 E0.01412
G1 X246.241 Y206.327 E0.01402
G1 X245.914 Y206.670 E0.01412
G1 X245.257 Y207.053 E0.02264
G1 X244.506 Y207.189 E0.02274
G1 X5.496 Y207.189 E7.11928
G1 X5.025 Y207.136 E0.01412
G1 X4.576 Y206.984 E0.01412
G1 X4.173 Y206.741 E0.01402
G1 X3.830 Y206.414 E0.01412
G1 X3.447 Y205.757 E0.02264
G1 X3.311 Y205.006 E0.02274
G1 X3.311 Y4.996 E5.95760
G1 X3.364 Y4.525 E0.01412
G1 X3.516 Y4.076 E0.01412
G1 X3.759 Y3.673 E0.01402
G1 X4.086 Y3.330 E0.01412
G1 X4.691 Y2.977 E0.02085
; PURGING FINISHED
G1 E-0.08000 F1800.00000
G1 F5760
G1 X5.494 Y2.811 E-0.24350
G1 X6.978 Y2.811 E-0.44050
G1 E-0.03600 F1800.00000
G1 Z0.600 F7200.000
G1 X6.464 Y185.964
G1 Z0.200
G1 E0.80000 F1800.00000
G1 F1200
G1 X24.536 Y185.964 E0.53829
G1 X24.536 Y204.036 E0.53829
G1 X6.464 Y204.036 E0.53829
G1 X6.464 Y186.024 E0.53651
G1 X6.087 Y185.587 F7200.000
G1 F1200
G1 X24.913 Y185.587 E0.56076
G1 X24.913 Y204.413 E0.56076
G1 X6.087 Y204.413 E0.56076
M73 Q6 S15
M73 P6 R15
G1 X6.087 Y185.647 E0.55897
G1 X5.710 Y185.210 F7200.000
G1 F1200
G1 X25.290 Y185.210 E0.58322
G1 X25.290 Y204.790 E0.58322
G1 X5.710 Y204.790 E0.58322
G1 X5.710 Y185.270 E0.58143
G1 X6.096 Y185.314 F7200.000
G1 E-0.08000 F1800.00000
G1 F5760
G1 X8.014 Y185.263 E-0.68400
G1 E-0.03600 F1800.00000
G1 Z0.600 F7200.000
G1 X7.370 Y203.904
G1 Z0.200
G1 E0.80000 F1800.00000
G1 F1200
G1 X6.766 Y203.300 E0.02579
G1 X6.766 Y202.759 E0.01633
G1 X7.741 Y203.734 E0.04164
G1 X8.281 Y203.734 E0.01633
G1 X6.766 Y202.219 E0.06474
G1 X6.766 Y201.678 E0.01633
G1 X8.822 Y203.734 E0.08784
G1 X9.363 Y203.734 E0.01633
G1 X6.766 Y201.137 E0.11094
G1 X6.766 Y200.596 E0.01633
G1 X9.904 Y203.734 E0.13404
G1 X10.444 Y203.734 E0.01633
G1 X6.766 Y200.056 E0.15714
G1 X6.766 Y199.515 E0.01633
G1 X10.985 Y203.734 E0.18024
G1 X11.526 Y203.734 E0.01633
G1 X6.766 Y198.974 E0.20334
G1 X6.766 Y198.433 E0.01633
G1 X12.067 Y203.734 E0.22644
G1 X12.608 Y203.734 E0.01633
G1 X6.766 Y197.892 E0.24954
G1 X6.766 Y197.352 E0.01633
G1 X13.148 Y203.734 E0.27264
G1 X13.689 Y203.734 E0.01633
G1 X6.766 Y196.811 E0.29574
G1 X6.766 Y196.270 E0.01633
G1 X14.230 Y203.734 E0.31884
G1 X14.771 Y203.734 E0.01633
G1 X6.766 Y195.729 E0.34194
G1 X6.766 Y195.189 E0.01633
G1 X15.311 Y203.734 E0.36504
G1 X15.852 Y203.734 E0.01633
G1 X6.766 Y194.648 E0.38814
G1 X6.766 Y194.107 E0.01633
G1 X16.393 Y203.734 E0.41124
G1 X16.934 Y203.734 E0.01633
G1 X6.766 Y193.566 E0.43434
G1 X6.766 Y193.025 E0.01633
G1 X17.475 Y203.734 E0.45744
G1 X18.015 Y203.734 E0.01633
G1 X6.766 Y192.485 E0.48055
G1 X6.766 Y191.944 E0.01633
G1 X18.556 Y203.734 E0.50365
G1 X19.097 Y203.734 E0.01633
G1 X6.766 Y191.403 E0.52675
G1 X6.766 Y190.862 E0.01633
G1 X19.638 Y203.734 E0.54985
G1 X20.178 Y203.734 E0.01633
G1 X6.766 Y190.322 E0.57295
G1 X6.766 Y189.781 E0.01633
G1 X20.719 Y203.734 E0.59605
G1 X21.260 Y203.734 E0.01633
G1 X6.766 Y189.240 E0.61915
G1 X6.766 Y188.699 E0.01633
G1 X21.801 Y203.734 E0.64225
G1 X22.341 Y203.734 E0.01633
G1 X6.766 Y188.159 E0.66535
G1 X6.766 Y187.618 E0.01633
G1 X22.882 Y203.734 E0.68845
G1 X23.423 Y203.734 E0.01633
G1 X6.766 Y187.077 E0.71155
G1 X6.766 Y186.536 E0.01633
G1 X23.964 Y203.734 E0.73465
G1 X24.234 Y203.734 E0.00817
G1 X24.234 Y203.464 E0.00817
G1 X7.036 Y186.266 E0.73465
G1 X7.577 Y186.266 E0.01633
G1 X24.234 Y202.923 E0.71155
G1 X24.234 Y202.382 E0.01633
G1 X8.118 Y186.266 E0.68845
G1 X8.658 Y186.266 E0.01633
G1 X24.234 Y201.842 E0.66535
G1 X24.234 Y201.301 E0.01633
G1 X9.199 Y186.266 E0.64225
G1 X9.740 Y186.266 E0.01633
G1 X24.234 Y200.760 E0.61915
G1 X24.234 Y200.219 E0.01633
G1 X10.281 Y186.266 E0.59605
G1 X10.822 Y186.266 E0.01633
G1 X24.234 Y199.678 E0.57295
G1 X24.234 Y199.138 E0.01633
G1 X11.362 Y186.266 E0.54985
G1 X11.903 Y186.266 E0.01633
G1 X24.234 Y198.597 E0.52675
G1 X24.234 Y198.056 E0.01633
G1 X12.444 Y186.266 E0.50365
G1 X12.985 Y186.266 E0.01633
G1 X24.234 Y197.515 E0.48055
G1 X24.234 Y196.975 E0.01633
G1 X13.525 Y186.266 E0.45745
G1 X14.066 Y186.266 E0.01633
G1 X24.234 Y196.434 E0.43435
G1 X24.234 Y195.893 E0.01633
G1 X14.607 Y186.266 E0.41125
G1 X15.148 Y186.266 E0.01633
G1 X24.234 Y195.352 E0.38815
G1 X24.234 Y194.812 E0.01633
G1 X15.688 Y186.266 E0.36505
G1 X16.229 Y186.266 E0.01633
G1 X24.234 Y194.271 E0.34195
G1 X24.234 Y193.730 E0.01633
G1 X16.770 Y186.266 E0.31885
G1 X17.311 Y186.266 E0.01633
G1 X24.234 Y193.189 E0.29575
G1 X24.234 Y192.648 E0.01633
G1 X17.852 Y186.266 E0.27265
G1 X18.392 Y186.266 E0.01633
G1 X24.234 Y192.108 E0.24955
G1 X24.234 Y191.567 E0.01633
G1 X18.933 Y186.266 E0.22645
G1 X19.474 Y186.266 E0.01633
G1 X24.234 Y191.026 E0.20335
G1 X24.234 Y190.485 E0.01633
G1 X20.015 Y186.266 E0.18025
G1 X20.555 Y186.266 E0.01633
G1 X24.234 Y189.945 E0.15715
G1 X24.234 Y189.404 E0.01633
G1 X21.096 Y186.266 E0.13405
G1 X21.637 Y186.266 E0.01633
G1 X24.234 Y188.863 E0.11095
G1 X24.234 Y188.322 E0.01633
G1 X22.178 Y186.266 E0.08785
G1 X22.719 Y186.266 E0.01633
G1 X24.234 Y187.781 E0.06475
G1 X24.234 Y187.241 E0.01633
G1 X23.259 Y186.266 E0.04165
G1 X23.800 Y186.266 E0.01633
G1 X24.404 Y186.870 E0.02579
G1 E-0.08000 F1800.00000
G1 F5760
G1 X23.800 Y186.266 E-0.25352
G1 X23.259 Y186.266 E-0.16054
G1 X23.902 Y186.909 E-0.26994
G1 E-0.03600 F1800.00000
G1 Z0.600 F7200.000
G1 X6.464 Y144.036
G1 Z0.200
G1 E0.80000 F1800.00000
G1 F1200
G1 X6.464 Y125.964 E0.53829
G1 X24.536 Y125.964 E0.53829
G1 X24.536 Y144.036 E0.53829
G1 X6.524 Y144.036 E0.53651
G1 X6.087 Y144.413 F7200.000
G1 F1200
G1 X6.087 Y125.587 E0.56076
G1 X24.913 Y125.587 E0.56076
G1 X24.913 Y144.413 E0.56076
G1 X6.147 Y144.413 E0.55897
G1 X5.710 Y144.790 F7200.000
G1 F1200
G1 X5.710 Y125.210 E0.58322
G1 X25.290 Y125.210 E0.58322
G1 X25.290 Y144.790 E0.58322
G1 X5.770 Y144.790 E0.58143
M73 P12 R14
G1 X5.814 Y144.404 F7200.000
G1 X7.370 Y143.904
G1 F1200
G1 X6.766 Y143.300 E0.02579
G1 X6.766 Y142.759 E0.01633
G1 X7.741 Y143.734 E0.04164
M73 Q12 S14
G1 X8.281 Y143.734 E0.01633
G1 X6.766 Y142.219 E0.06474
G1 X6.766 Y141.678 E0.01633
G1 X8.822 Y143.734 E0.08784
G1 X9.363 Y143.734 E0.01633
G1 X6.766 Y141.137 E0.11094
G1 X6.766 Y140.596 E0.01633
G1 X9.904 Y143.734 E0.13404
G1 X10.444 Y143.734 E0.01633
G1 X6.766 Y140.056 E0.15714
G1 X6.766 Y139.515 E0.01633
G1 X10.985 Y143.734 E0.18024
G1 X11.526 Y143.734 E0.01633
G1 X6.766 Y138.974 E0.20334
G1 X6.766 Y138.433 E0.01633
G1 X12.067 Y143.734 E0.22644
G1 X12.608 Y143.734 E0.01633
G1 X6.766 Y137.892 E0.24954
G1 X6.766 Y137.352 E0.01633
G1 X13.148 Y143.734 E0.27264
G1 X13.689 Y143.734 E0.01633
G1 X6.766 Y136.811 E0.29574
G1 X6.766 Y136.270 E0.01633
G1 X14.230 Y143.734 E0.31884
G1 X14.771 Y143.734 E0.01633
G1 X6.766 Y135.729 E0.34194
G1 X6.766 Y135.189 E0.01633
G1 X15.311 Y143.734 E0.36504
G1 X15.852 Y143.734 E0.01633
G1 X6.766 Y134.648 E0.38814
G1 X6.766 Y134.107 E0.01633
G1 X16.393 Y143.734 E0.41124
G1 X16.934 Y143.734 E0.01633
G1 X6.766 Y133.566 E0.43434
G1 X6.766 Y133.025 E0.01633
G1 X17.475 Y143.734 E0.45744
G1 X18.015 Y143.734 E0.01633
G1 X6.766 Y132.485 E0.48055
G1 X6.766 Y131.944 E0.01633
G1 X18.556 Y143.734 E0.50365
G1 X19.097 Y143.734 E0.01633
G1 X6.766 Y131.403 E0.52675
G1 X6.766 Y130.862 E0.01633
G1 X19.638 Y143.734 E0.54985
G1 X20.178 Y143.734 E0.01633
G1 X6.766 Y130.322 E0.57295
G1 X6.766 Y129.781 E0.01633
G1 X20.719 Y143.734 E0.59605
G1 X21.260 Y143.734 E0.01633
G1 X6.766 Y129.240 E0.61915
G1 X6.766 Y128.699 E0.01633
G1 X21.801 Y143.734 E0.64225
G1 X22.341 Y143.734 E0.01633
G1 X6.766 Y128.159 E0.66535
G1 X6.766 Y127.618 E0.01633
G1 X22.882 Y143.734 E0.68845
G1 X23.423 Y143.734 E0.01633
G1 X6.766 Y127.077 E0.71155
G1 X6.766 Y126.536 E0.01633
G1 X23.964 Y143.734 E0.73465
G1 X24.234 Y143.734 E0.00817
G1 X24.234 Y143.464 E0.00817
G1 X7.036 Y126.266 E0.73465
G1 X7.577 Y126.266 E0.01633
G1 X24.234 Y142.923 E0.71155
G1 X24.234 Y142.382 E0.01633
G1 X8.118 Y126.266 E0.68845
G1 X8.658 Y126.266 E0.01633
G1 X24.234 Y141.842 E0.66535
G1 X24.234 Y141.301 E0.01633
G1 X9.199 Y126.266 E0.64225
G1 X9.740 Y126.266 E0.01633
G1 X24.234 Y140.760 E0.61915
G1 X24.234 Y140.219 E0.01633
G1 X10.281 Y126.266 E0.59605
G1 X10.822 Y126.266 E0.01633
G1 X24.234 Y139.678 E0.57295
G1 X24.234 Y139.138 E0.01633
G1 X11.362 Y126.266 E0.54985
G1 X11.903 Y126.266 E0.01633
G1 X24.234 Y138.597 E0.52675
G1 X24.234 Y138.056 E0.01633
G1 X12.444 Y126.266 E0.50365
G1 X12.985 Y126.266 E0.01633
G1 X24.234 Y137.515 E0.48055
G1 X24.234 Y136.975 E0.01633
G1 X13.525 Y126.266 E0.45745
G1 X14.066 Y126.266 E0.01633
G1 X24.234 Y136.434 E0.43435
G1 X24.234 Y135.893 E0.01633
G1 X14.607 Y126.266 E0.41125
G1 X15.148 Y126.266 E0.01633
G1 X24.234 Y135.352 E0.38815
G1 X24.234 Y134.812 E0.01633
G1 X15.688 Y126.266 E0.36505
G1 X16.229 Y126.266 E0.01633
G1 X24.234 Y134.271 E0.34195
G1 X24.234 Y133.730 E0.01633
G1 X16.770 Y126.266 E0.31885
G1 X17.311 Y126.266 E0.01633
G1 X24.234 Y133.189 E0.29575
G1 X24.234 Y132.648 E0.01633
G1 X17.852 Y126.266 E0.27265
G1 X18.392 Y126.266 E0.01633
G1 X24.234 Y132.108 E0.24955
G1 X24.234 Y131.567 E0.01633
G1 X18.933 Y126.266 E0.22645
G1 X19.474 Y126.266 E0.01633
G1 X24.234 Y131.026 E0.20335
G1 X24.234 Y130.485 E0.01633
G1 X20.015 Y126.266 E0.18025
G1 X20.555 Y126.266 E0.01633
G1 X24.234 Y129.945 E0.15715
G1 X24.234 Y129.404 E0.01633
G1 X21.096 Y126.266 E0.13405
G1 X21.637 Y126.266 E0.01633
G1 X24.234 Y128.863 E0.11095
G1 X24.234 Y128.322 E0.01633
G1 X22.178 Y126.266 E0.08785
G1 X22.719 Y126.266 E0.01633
G1 X24.234 Y127.781 E0.06475
G1 X24.234 Y127.241 E0.01633
G1 X23.259 Y126.266 E0.04165
G1 X23.800 Y126.266 E0.01633
G1 X24.404 Y126.870 E0.02579
G1 E-0.08000 F1800.00000
G1 F5760
G1 X23.800 Y126.266 E-0.25352
G1 X23.259 Y126.266 E-0.16054
G1 X23.902 Y126.909 E-0.26994
G1 E-0.03600 F1800.00000
G1 Z0.600 F7200.000
G1 X6.464 Y84.036
G1 Z0.200
G1 E0.80000 F1800.00000
G1 F1200
G1 X6.464 Y65.964 E0.53829
G1 X24.536 Y65.964 E0.53829
G1 X24.536 Y84.036 E0.53829
G1 X6.524 Y84.036 E0.53651
G1 X6.087 Y84.413 F7200.000
G1 F1200
G1 X6.087 Y65.587 E0.56076
G1 X24.913 Y65.587 E0.56076
G1 X24.913 Y84.413 E0.56076
G1 X6.147 Y84.413 E0.55897
G1 X5.710 Y84.790 F7200.000
G1 F1200
G1 X5.710 Y65.210 E0.58322
G1 X25.290 Y65.210 E0.58322
G1 X25.290 Y84.790 E0.58322
G1 X5.770 Y84.790 E0.58143
G1 X5.814 Y84.404 F7200.000
G1 X7.370 Y83.904
G1 F1200
G1 X6.766 Y83.300 E0.02579
G1 X6.766 Y82.759 E0.01633
G1 X7.741 Y83.734 E0.04164
G1 X8.281 Y83.734 E0.01633
G1 X6.766 Y82.219 E0.06474
G1 X6.766 Y81.678 E0.01633
G1 X8.822 Y83.734 E0.08784
G1 X9.363 Y83.734 E0.01633
G1 X6.766 Y81.137 E0.11094
G1 X6.766 Y80.596 E0.01633
G1 X9.904 Y83.734 E0.13404
G1 X10.444 Y83.734 E0.01633
G1 X6.766 Y80.056 E0.15714
G1 X6.766 Y79.515 E0.01633
G1 X10.985 Y83.734 E0.18024
G1 X11.526 Y83.734 E0.01633
G1 X6.766 Y78.974 E0.20334
G1 X6.766 Y78.433 E0.01633
G1 X12.067 Y83.734 E0.22644
G1 X12.608 Y83.734 E0.01633
G1 X6.766 Y77.892 E0.24954
G1 X6.766 Y77.352 E0.01633
G1 X13.148 Y83.734 E0.27264
G1 X13.689 Y83.734 E0.01633
G1 X6.766 Y76.811 E0.29574
G1 X6.766 Y76.270 E0.01633
G1 X14.230 Y83.734 E0.31884
G1 X14.771 Y83.734 E0.01633
G1 X6.766 Y75.729 E0.34194
M73 P18 R13
G1 X6.766 Y75.189 E0.01633
G1 X15.311 Y83.734 E0.36504
G1 X15.852 Y83.734 E0.01633
G1 X6.766 Y74.648 E0.38814
M73 Q19 S13
G1 X6.766 Y74.107 E0.01633
G1 X16.393 Y83.734 E0.41124
G1 X16.934 Y83.734 E0.01633
G1 X6.766 Y73.566 E0.43434
G1 X6.766 Y73.025 E0.01633
G1 X17.475 Y83.734 E0.45744
G1 X18.015 Y83.734 E0.01633
G1 X6.766 Y72.485 E0.48055
G1 X6.766 Y71.944 E0.01633
G1 X18.556 Y83.734 E0.50365
G1 X19.097 Y83.734 E0.01633
G1 X6.766 Y71.403 E0.52675
G1 X6.766 Y70.862 E0.01633
G1 X19.638 Y83.734 E0.54985
G1 X20.178 Y83.734 E0.01633
G1 X6.766 Y70.322 E0.57295
G1 X6.766 Y69.781 E0.01633
G1 X20.719 Y83.734 E0.59605
G1 X21.260 Y83.734 E0.01633
G1 X6.766 Y69.240 E0.61915
G1 X6.766 Y68.699 E0.01633
G1 X21.801 Y83.734 E0.64225
G1 X22.341 Y83.734 E0.01633
G1 X6.766 Y68.159 E0.66535
G1 X6.766 Y67.618 E0.01633
G1 X22.882 Y83.734 E0.68845
G1 X23.423 Y83.734 E0.01633
G1 X6.766 Y67.077 E0.71155
G1 X6.766 Y66.536 E0.01633
G1 X23.964 Y83.734 E0.73465
G1 X24.234 Y83.734 E0.00817
G1 X24.234 Y83.464 E0.00817
G1 X7.036 Y66.266 E0.73465
G1 X7.577 Y66.266 E0.01633
G1 X24.234 Y82.923 E0.71155
G1 X24.234 Y82.382 E0.01633
G1 X8.118 Y66.266 E0.68845
G1 X8.658 Y66.266 E0.01633
G1 X24.234 Y81.842 E0.66535
G1 X24.234 Y81.301 E0.01633
G1 X9.199 Y66.266 E0.64225
G1 X9.740 Y66.266 E0.01633
G1 X24.234 Y80.760 E0.61915
G1 X24.234 Y80.219 E0.01633
G1 X10.281 Y66.266 E0.59605
G1 X10.822 Y66.266 E0.01633
G1 X24.234 Y79.678 E0.57295
G1 X24.234 Y79.138 E0.01633
G1 X11.362 Y66.266 E0.54985
G1 X11.903 Y66.266 E0.01633
G1 X24.234 Y78.597 E0.52675
G1 X24.234 Y78.056 E0.01633
G1 X12.444 Y66.266 E0.50365
G1 X12.985 Y66.266 E0.01633
G1 X24.234 Y77.515 E0.48055
G1 X24.234 Y76.975 E0.01633
G1 X13.525 Y66.266 E0.45745
G1 X14.066 Y66.266 E0.01633
G1 X24.234 Y76.434 E0.43435
G1 X24.234 Y75.893 E0.01633
G1 X14.607 Y66.266 E0.41125
G1 X15.148 Y66.266 E0.01633
G1 X24.234 Y75.352 E0.38815
G1 X24.234 Y74.812 E0.01633
G1 X15.688 Y66.266 E0.36505
G1 X16.229 Y66.266 E0.01633
G1 X24.234 Y74.271 E0.34195
G1 X24.234 Y73.730 E0.01633
G1 X16.770 Y66.266 E0.31885
G1 X17.311 Y66.266 E0.01633
G1 X24.234 Y73.189 E0.29575
G1 X24.234 Y72.648 E0.01633
G1 X17.852 Y66.266 E0.27265
G1 X18.392 Y66.266 E0.01633
G1 X24.234 Y72.108 E0.24955
G1 X24.234 Y71.567 E0.01633
G1 X18.933 Y66.266 E0.22645
G1 X19.474 Y66.266 E0.01633
G1 X24.234 Y71.026 E0.20335
G1 X24.234 Y70.485 E0.01633
G1 X20.015 Y66.266 E0.18025
G1 X20.555 Y66.266 E0.01633
G1 X24.234 Y69.945 E0.15715
G1 X24.234 Y69.404 E0.01633
G1 X21.096 Y66.266 E0.13405
G1 X21.637 Y66.266 E0.01633
G1 X24.234 Y68.863 E0.11095
G1 X24.234 Y68.322 E0.01633
G1 X22.178 Y66.266 E0.08785
G1 X22.719 Y66.266 E0.01633
G1 X24.234 Y67.781 E0.06475
G1 X24.234 Y67.241 E0.01633
G1 X23.259 Y66.266 E0.04165
G1 X23.800 Y66.266 E0.01633
G1 X24.404 Y66.870 E0.02579
G1 E-0.08000 F1800.00000
G1 F5760
G1 X23.800 Y66.266 E-0.25352
G1 X23.259 Y66.266 E-0.16054
G1 X23.902 Y66.909 E-0.26994
G1 E-0.03600 F1800.00000
G1 Z0.600 F7200.000
G1 X6.464 Y24.036
G1 Z0.200
G1 E0.80000 F1800.00000
G1 F1200
G1 X6.464 Y5.964 E0.53829
G1 X24.536 Y5.964 E0.53829
G1 X24.536 Y24.036 E0.53829
G1 X6.524 Y24.036 E0.53651
G1 X6.087 Y24.413 F7200.000
G1 F1200
G1 X6.087 Y5.587 E0.56076
G1 X24.913 Y5.587 E0.56076
G1 X24.913 Y24.413 E0.56076
G1 X6.147 Y24.413 E0.55897
G1 X5.710 Y24.790 F7200.000
G1 F1200
G1 X5.710 Y5.210 E0.58322
G1 X25.290 Y5.210 E0.58322
G1 X25.290 Y24.790 E0.58322
G1 X5.770 Y24.790 E0.58143
G1 X5.814 Y24.404 F7200.000
G1 X7.370 Y23.904
G1 F1200
G1 X6.766 Y23.300 E0.02579
